X:1
T:Avondale (Gabriel), CM
T:Charles Hutchinson Gabriel, 1901
T:Avondale (Gabriel), CM
T:Public Domain
C:Charles Hutchinson Gabriel, 1901
Z:Public Domain
%%score ( 1 2 ) ( 3 4 )
L:1/8
M:4/4
K:E
V:1 treble 
V:2 treble 
V:3 bass 
V:4 bass 
V:1
 [EG]2 | [EG]3 E [EA][EG] [DG]>[DF] | E6 [=DE]2 | [CE]3 [CE] [CA]2 [=CE]2 | [B,G]6 [B,G]2 | %5
 [DB]3 [DF] [^^C^E][DF] [=EG]>[FA] | [EG]6 [CF]2 | [B,E]3 [B,E] [B,D]2 [B,F]2 | [B,E]6 |] %9
V:2
 x2 | x8 | E6 x2 | x8 | x8 | x8 | x8 | x8 | x6 |] %9
V:3
 [E,B,]2 | [E,B,]3 [E,G,] [E,C][E,B,] [B,,B,]>[B,,A,] | [E,G,]6 [E,G,]2 | %3
 [A,,A,]3 [A,,A,] [A,,A,]2 [A,,A,]2 | [E,G,]6 E,2 | %5
 [B,,F,]3 [B,,B,] [B,,B,][B,,B,] [B,,B,]>[B,,B,] | [E,B,]6 [A,,A,]2 | %7
 [B,,G,]3 [B,,G,] [B,,F,]2 [B,,A,]2 | [E,G,]6 |] %9
V:4
 x2 | x8 | x8 | x8 | x6 E,2 | x8 | x8 | x8 | x6 |] %9

